X:248
T:Le bon espoir que mon cueur a (Chanson 5)
C:Manuscript de Bayeux (fin XVe)
R:Chanson
M:4/4
L:1/8
Q:1/4=120
K:F 
V:1
d4 e2 d2 | c2 d3/2c<BA/2 A2 | G2zG c2 c2 | c2 d2 cB/2A/2 B2 | 
A2zd d2 d2 | c3B A2 G2 | F2zd2<f2e | d2 c2 BG A2 | 
G8 |  c4 c2 c2 | c2 d2 cB/2A/2 B2 | A2zd d2 _e2 |
d2 c2 BG A2 | G8 | c4 c2 c2 | c2 d2 cB/2A/2 B2 | 
A2zd d2 _e2 | d2 c2 BG A2 | G8 |]
V:2 clef=perc stafflines=1 staffscale=0.8
B4 B2 B2 | B4 B2 B2 | B4 B2 B2 | B4 B2 B2 | 
B4 B2 B2 | B4 B2 B2 | B4 B2 B2 | B4 B2 B2 | 
B8 | B4 B2 B2 | B4 B2 B2 | B4 B2 B2 | B4 B2 B2 |
B8 | B4 B2 B2 | B4 B2 B2 | B4 B2 B2 | B4 B2 B2 | B8 |]





